assets/misc-grey/MiscGrey37.svg

<svg width="38" height="41" viewBox="0 0 38 41" fill="none" xmlns="http://www.w3.org/2000/svg">
<path fill-rule="evenodd" clip-rule="evenodd" d="M36.43 37.0699H2.09998C1.26998 37.0699 0.599976 37.7399 0.599976 38.5699C0.599976 39.3999 1.26998 40.0699 2.09998 40.0699H36.43C37.26 40.0699 37.93 39.3999 37.93 38.5699C37.93 37.7399 37.26 37.0699 36.43 37.0699ZM3.67998 25.2699L20.36 8.52995L24.64 12.8199L7.93998 29.5299H3.67998V25.2699ZM24.93 3.93995L29.23 8.23995L26.77 10.6999L22.48 6.40995L24.93 3.93995ZM2.17998 32.5299H8.55998C8.95998 32.5299 9.33998 32.3699 9.61998 32.0899L32.41 9.29995C32.69 9.01995 32.85 8.62995 32.85 8.23995C32.85 7.83995 32.69 7.45995 32.41 7.17995L25.99 0.759946C25.71 0.479946 25.33 0.319946 24.93 0.319946C24.53 0.319946 24.15 0.479946 23.87 0.759946L1.11998 23.5899C0.839976 23.8799 0.679976 24.2599 0.679976 24.6499V31.0299C0.679976 31.8599 1.34998 32.5299 2.17998 32.5299Z" fill="#1A1919"/>
</svg>

<svg xmlns="http://www.w3.org/2000/svg" viewBox="0 0 38 41"><path fill-rule="evenodd" d="M36.43 37.07H2.1c-.83 0-1.5.67-1.5 1.5s.67 1.5 1.5 1.5h34.33c.83 0 1.5-.67 1.5-1.5s-.67-1.5-1.5-1.5zM3.68 25.27L20.36 8.53l4.28 4.29-16.7 16.71H3.68v-4.26zM24.93 3.94l4.3 4.3-2.46 2.46-4.29-4.29 2.45-2.47zM2.18 32.53h6.38c.4 0 .78-.16 1.06-.44L32.41 9.3a1.499 1.499 0 000-2.12L25.99.76a1.499 1.499 0 00-2.12 0L1.12 23.59c-.28.29-.44.67-.44 1.06v6.38c0 .83.67 1.5 1.5 1.5z" clip-rule="evenodd"/></svg>
